icons/evolvere-blue-folders-flat-vivid-dark-fallback/apps/64/partner.svg

<?xml version="1.0" encoding="UTF-8" standalone="no"?>
<!-- Created with Inkscape (http://www.inkscape.org/) -->

<svg
   xmlns:dc="http://purl.org/dc/elements/1.1/"
   xmlns:cc="http://creativecommons.org/ns#"
   xmlns:rdf="http://www.w3.org/1999/02/22-rdf-syntax-ns#"
   xmlns:svg="http://www.w3.org/2000/svg"
   xmlns="http://www.w3.org/2000/svg"
   xmlns:sodipodi="http://sodipodi.sourceforge.net/DTD/sodipodi-0.dtd"
   xmlns:inkscape="http://www.inkscape.org/namespaces/inkscape"
   width="64"
   height="64"
   id="svg13094"
   version="1.1"
   inkscape:version="0.48.4 r9939"
   sodipodi:docname="partner.svg">
  <sodipodi:namedview
     id="base"
     pagecolor="#ffffff"
     bordercolor="#666666"
     borderopacity="1.0"
     inkscape:pageopacity="0"
     inkscape:pageshadow="2"
     inkscape:zoom="11.313709"
     inkscape:cx="40.703614"
     inkscape:cy="31.519661"
     inkscape:document-units="px"
     inkscape:current-layer="svg13094"
     showgrid="true"
     inkscape:snap-bbox="true"
     inkscape:bbox-paths="true"
     inkscape:bbox-nodes="true"
     inkscape:snap-bbox-edge-midpoints="true"
     inkscape:snap-bbox-midpoints="true"
     inkscape:object-paths="true"
     inkscape:snap-intersection-paths="true"
     inkscape:object-nodes="true"
     inkscape:snap-smooth-nodes="true"
     inkscape:snap-midpoints="true"
     inkscape:snap-object-midpoints="true"
     inkscape:snap-center="true"
     showguides="true"
     inkscape:guide-bbox="true"
     inkscape:window-width="1920"
     inkscape:window-height="1025"
     inkscape:window-x="-2"
     inkscape:window-y="32"
     inkscape:window-maximized="1"
     inkscape:snap-global="true"
     fit-margin-top="0"
     fit-margin-left="0"
     fit-margin-right="0"
     fit-margin-bottom="0"
     showborder="true"
     inkscape:showpageshadow="false"
     inkscape:snap-page="true">
    <inkscape:grid
       type="xygrid"
       id="grid3075"
       empspacing="5"
       visible="true"
       enabled="true"
       snapvisiblegridlinesonly="true"
       originx="1.6362304e-08px"
       originy="18px" />
  </sodipodi:namedview>
  <defs
     id="defs13096" />
  <metadata
     id="metadata13099">
    <rdf:RDF>
      <cc:Work
         rdf:about="">
        <dc:format>image/svg+xml</dc:format>
        <dc:type
           rdf:resource="http://purl.org/dc/dcmitype/StillImage" />
        <dc:title />
      </cc:Work>
    </rdf:RDF>
  </metadata>
  <path
     style="color:#000000;fill:#b02750;fill-opacity:1;fill-rule:nonzero;stroke:none;stroke-width:2.28571415000000000;marker:none;visibility:visible;display:inline;overflow:visible;enable-background:accumulate"
     d="M 0 4 L 0 34 L 0 62 L 2 64 L 32 64 L 62 64 L 64 62 L 64 34 L 64 4 L 32 4 L 0 4 z "
     id="path6498" />
  <path
     style="color:#000000;fill:#e34482;fill-opacity:1;fill-rule:nonzero;stroke:none;marker:none;visibility:visible;display:inline;overflow:visible;enable-background:accumulate;stroke-width:2.28571415000000000"
     d="M 2 0 L 0 1 L 0 4 L 32 4 L 64 4 L 64 1 L 62 0 L 32 0 L 2 0 z "
     id="path6502" />
  <path
     style="fill:#e6568f;fill-opacity:1;fill-rule:nonzero"
     d="M 0,3 0,6 2,4 z"
     id="path4298"
     inkscape:connector-curvature="0"
     sodipodi:nodetypes="cccc" />
  <path
     d="M 64,6 62,4 64,3 z"
     id="path3028"
     style="fill:#c83568;fill-opacity:1"
     inkscape:connector-curvature="0" />
  <g
     id="g3043"
     inkscape:export-filename="folder.png"
     inkscape:export-xdpi="90"
     inkscape:export-ydpi="90"
     transform="translate(-0.62500009,0.082283)" />
  <g
     id="scalable"
     transform="matrix(1.0385892,0,0,1.0385892,1214.7222,1878.8121)"
     inkscape:label="#g3701"
     style="fill:#ffffff" />
  <path
     style="color:#000000;fill:#f4dbe5;fill-opacity:1;fill-rule:nonzero;stroke:none;stroke-width:4;marker:none;visibility:visible;display:inline;overflow:visible;enable-background:accumulate"
     d="M 32 13.5 C 20.954305 13.5 12 22.454305 12 33.5 C 12 44.545695 20.954305 53.5 32 53.5 C 43.045695 53.5 52 44.545695 52 33.5 C 52 22.454305 43.045695 13.5 32 13.5 z M 32 16.5 C 41.388841 16.5 49 24.111159 49 33.5 C 49 42.888841 41.388841 50.5 32 50.5 C 22.611159 50.5 15 42.888841 15 33.5 C 15 24.111159 22.611159 16.5 32 16.5 z M 32 20 C 24.544156 20 18.5 26.044156 18.5 33.5 C 18.5 40.955844 24.544156 47 32 47 C 39.455844 47 45.5 40.955844 45.5 33.5 C 45.5 26.044156 39.455844 20 32 20 z "
     id="path3773" />
</svg>

<svg xmlns="http://www.w3.org/2000/svg" viewBox="0 0 64 64"><g color="#000"><path d="m0 4v30 28l2 2h30 30l2-2v-28-30h-32-32" fill="#b02750"/><path d="m2 0l-2 1v3h32 32v-3l-2-1h-30-30" fill="#e34482"/></g><path d="m0 3v3l2-2z" fill="#e6568f"/><path d="m64 6l-2-2 2-1z" fill="#c83568"/><path d="m32 13.5c-11.05 0-20 8.954-20 20 0 11.05 8.954 20 20 20 11.05 0 20-8.954 20-20 0-11.05-8.954-20-20-20m0 3c9.389 0 17 7.611 17 17 0 9.389-7.611 17-17 17-9.389 0-17-7.611-17-17 0-9.389 7.611-17 17-17m0 3.5c-7.456 0-13.5 6.04-13.5 13.5 0 7.456 6.04 13.5 13.5 13.5 7.456 0 13.5-6.04 13.5-13.5 0-7.456-6.04-13.5-13.5-13.5" fill="#f4dbe5" color="#000"/></svg>
